Origami/24x24/apps/ms-powerpoint.svg

<svg width="24" height="24" version="1.1" viewBox="0 0 48 48" xmlns="http://www.w3.org/2000/svg">
 <path d="m13.900391 5.0054284c-4.3001631 0.0676243-7.8731486 3.6976303-7.8730472 7.9977426v11.661665l0.082031-0.994102c-0.1470524 0.876256-0.1470524 1.772079 0 2.648336l-0.082031-0.994102v11.564013c-0.030868 2.181971 0.9826776 4.609489 2.6035156 6.066175 1.6208376 1.456685 3.5507376 2.044844 5.3945316 2.044844 1.843793 0 3.773693-0.588159 5.394531-2.044844 1.620838-1.456686 2.632431-3.884204 2.601562-6.066175l2e-3 0.08594v-4.271321c1.12736-0.07291 1.736715 0.0081 3.041015-0.154291 2.918776-0.363472 6.137662-0.929279 9.328125-2.451079 1.591175-0.758966 3.417408-1.889197 4.94336-3.720561 1.684061-2.021112 2.731613-4.61605 2.660156-7.575884-0.07325-3.042667-1.355776-5.521371-3.056641-7.339568-1.537208-1.6432011-3.287093-2.6474692-4.804733-3.3397196-3.073522-1.401942-6.187291-1.9978225-9.048828-2.4061585-5.777858-0.8244887-11.170173-0.7112349-11.185547-0.7109105z" style="opacity:.2"/>
 <path d="m13.900391 4.0054284c-4.3001631 0.0676243-7.8731486 3.6976303-7.8730472 7.9977426v11.661665l0.082031-0.994102c-0.1470524 0.876256-0.1470524 1.772079 0 2.648336l-0.082031-0.994102v11.564013c-0.030868 2.181971 0.9826776 4.609489 2.6035156 6.066175 1.6208376 1.456685 3.5507376 2.044844 5.3945316 2.044844 1.843793 0 3.773693-0.588159 5.394531-2.044844 1.620838-1.456686 2.632431-3.884204 2.601562-6.066175l2e-3 0.08594v-4.271321c1.12736-0.07291 1.736715 0.0081 3.041015-0.154291 2.918776-0.363472 6.137662-0.929279 9.328125-2.451079 1.591175-0.758966 3.417408-1.889197 4.94336-3.720561 1.684061-2.021112 2.731613-4.61605 2.660156-7.575884-0.07325-3.042667-1.355776-5.521371-3.056641-7.339568-1.537208-1.6432011-3.287093-2.6474692-4.804733-3.3397196-3.073522-1.401942-6.187291-1.9978225-9.048828-2.4061585-5.777858-0.8244887-11.170173-0.7112349-11.185547-0.7109105z" style="fill:#de554c"/>
 <path d="m13.993922 11.003203a1.9977809 1.9979379 0 0 0 -1.966369 1.997738v11.662577a1.9977809 1.9979379 0 0 0 0 0.661361v11.64892a1.9977809 1.9979379 0 1 0 3.995162 0v-9.957476c1.89906 0.03196 4.75861 0.01969 8.300496-0.421398 2.621219-0.32643 5.274158-0.856354 7.487028-1.911898 1.106434-0.527772 2.124722-1.195856 2.916389-2.146008 0.791669-0.950151 1.304551-2.239061 1.271898-3.591636-0.03157-1.311424-0.628692-2.515807-1.441613-3.38484-0.812923-0.869033-1.816577-1.480276-2.912489-1.98018-2.191825-0.999807-4.817546-1.556023-7.407047-1.925554-5.179002-0.739061-10.243455-0.651606-10.243455-0.651606zm2.028793 4.028642c1.776416 0.02822 4.433277 0.118306 7.650891 0.577471 2.385476 0.340416 4.744797 0.890415 6.312669 1.605604 0.783936 0.357594 1.353986 0.753968 1.654247 1.074955 0.300262 0.320987 0.356456 0.487763 0.362842 0.753053 0.0095 0.394946-0.06955 0.603162-0.347236 0.93644-0.277688 0.333279-0.806125 0.734662-1.564511 1.096415-1.516776 0.723505-3.868122 1.254817-6.26195 1.55293-3.301242 0.411116-6.03683 0.419571-7.806952 0.390183z" style="opacity:.2"/>
 <path d="m13.993922 10.003203a1.9977809 1.9979379 0 0 0 -1.966369 1.997738v11.662577a1.9977809 1.9979379 0 0 0 0 0.661361v11.64892a1.9977809 1.9979379 0 1 0 3.995162 0v-9.957476c1.89906 0.03196 4.75861 0.01969 8.300496-0.421398 2.621219-0.32643 5.274158-0.856354 7.487028-1.911898 1.106434-0.527772 2.124722-1.195856 2.916389-2.146008 0.791669-0.950151 1.304551-2.239061 1.271898-3.591636-0.03157-1.311424-0.628692-2.515807-1.441613-3.38484-0.812923-0.869033-1.816577-1.480276-2.912489-1.98018-2.191825-0.999807-4.817546-1.556023-7.407047-1.925554-5.179002-0.7390614-10.243455-0.651606-10.243455-0.651606zm2.028793 4.028642c1.776416 0.02822 4.433277 0.118306 7.650891 0.577471 2.385476 0.340416 4.744797 0.890415 6.312669 1.605604 0.783936 0.357594 1.353986 0.753968 1.654247 1.074955 0.300262 0.320987 0.356456 0.487763 0.362842 0.753053 0.0095 0.394946-0.06955 0.603162-0.347236 0.93644-0.277688 0.333279-0.806125 0.734662-1.564511 1.096415-1.516776 0.723505-3.868122 1.254817-6.26195 1.55293-3.301242 0.411116-6.03683 0.419571-7.806952 0.390183z" style="fill:#ffffff"/>
 <path transform="scale(2)" d="m6.9511719 2.0019531c-2.1500816 0.0338122-3.9375507 1.8499439-3.9375 4v0.5c-5.07e-5 -2.1500561 1.7874184-3.9661878 3.9375-4 0.007687-1.622e-4 2.7028679-0.0567756 5.5917971 0.3554688 1.430768 0.204168 2.988629 0.502154 4.52539 1.203125 0.75882 0.3461252 1.63374 0.8483213 2.402344 1.6699219 0.828806 0.8859803 1.454117 2.0880015 1.519531 3.5566406 0.005418-0.1278876 0.010971-0.2559081 0.007813-0.3867188-0.036625-1.5213335-0.676911-2.7608234-1.527344-3.6699218-0.768604-0.8216006-1.643524-1.3237967-2.402344-1.6699219-1.536761-0.700971-3.094622-0.998957-4.52539-1.203125-2.8889292-0.4122444-5.5841101-0.355631-5.5917971-0.3554688zm-3.9375 9.8300779c-0.0045954 0.110354-0.0045417 0.219723 0 0.330078v-0.330078z" style="fill:#ffffff;opacity:.2"/>
</svg>

<svg xmlns="http://www.w3.org/2000/svg" width="24" height="24" version="1.1" viewBox="0 0 48 48">
 <path style="opacity:0.2" d="M 13.900391,5.0054284 C 9.6002279,5.0730527 6.0272424,8.7030587 6.0273438,13.003171 v 11.661665 l 0.082031,-0.994102 c -0.1470524,0.876256 -0.1470524,1.772079 0,2.648336 L 6.0273438,25.324968 V 36.888981 C 5.9964758,39.070952 7.0100214,41.49847 8.6308594,42.955156 10.251697,44.411841 12.181597,45 14.025391,45 c 1.843793,0 3.773693,-0.588159 5.394531,-2.044844 1.620838,-1.456686 2.632431,-3.884204 2.601562,-6.066175 l 0.002,0.08594 V 32.7036 c 1.12736,-0.07291 1.736715,0.0081 3.041015,-0.154291 2.918776,-0.363472 6.137662,-0.929279 9.328125,-2.451079 1.591175,-0.758966 3.417408,-1.889197 4.94336,-3.720561 1.684061,-2.021112 2.731613,-4.61605 2.660156,-7.575884 C 41.92289,15.759118 40.640364,13.280414 38.939499,11.462217 37.402291,9.8190159 35.652406,8.8147478 34.134766,8.1224974 31.061244,6.7205554 27.947475,6.1246749 25.085938,5.7163389 19.30808,4.8918502 13.915765,5.005104 13.900391,5.0054284 Z"/>
 <path style="fill:#de554c" d="M 13.900391,4.0054284 C 9.6002279,4.0730527 6.0272424,7.7030587 6.0273438,12.003171 v 11.661665 l 0.082031,-0.994102 c -0.1470524,0.876256 -0.1470524,1.772079 0,2.648336 L 6.0273438,24.324968 V 35.888981 C 5.9964758,38.070952 7.0100214,40.49847 8.6308594,41.955156 10.251697,43.411841 12.181597,44 14.025391,44 c 1.843793,0 3.773693,-0.588159 5.394531,-2.044844 1.620838,-1.456686 2.632431,-3.884204 2.601562,-6.066175 l 0.002,0.08594 V 31.7036 c 1.12736,-0.07291 1.736715,0.0081 3.041015,-0.154291 2.918776,-0.363472 6.137662,-0.929279 9.328125,-2.451079 1.591175,-0.758966 3.417408,-1.889197 4.94336,-3.720561 1.684061,-2.021112 2.731613,-4.61605 2.660156,-7.575884 C 41.92289,14.759118 40.640364,12.280414 38.939499,10.462217 37.402291,8.8190159 35.652406,7.8147478 34.134766,7.1224974 31.061244,5.7205554 27.947475,5.1246749 25.085938,4.7163389 19.30808,3.8918502 13.915765,4.005104 13.900391,4.0054284 Z"/>
 <path style="opacity:0.2" d="m 13.993922,11.003203 a 1.9977809,1.9979379 0 0 0 -1.966369,1.997738 v 11.662577 a 1.9977809,1.9979379 0 0 0 0,0.661361 v 11.64892 a 1.9977809,1.9979379 0 1 0 3.995162,0 v -9.957476 c 1.89906,0.03196 4.75861,0.01969 8.300496,-0.421398 2.621219,-0.32643 5.274158,-0.856354 7.487028,-1.911898 1.106434,-0.527772 2.124722,-1.195856 2.916389,-2.146008 0.791669,-0.950151 1.304551,-2.239061 1.271898,-3.591636 -0.03157,-1.311424 -0.628692,-2.515807 -1.441613,-3.38484 C 33.74399,14.69151 32.740336,14.080267 31.644424,13.580363 29.452599,12.580556 26.826878,12.02434 24.237377,11.654809 19.058375,10.915748 13.993922,11.003203 13.993922,11.003203 Z m 2.028793,4.028642 c 1.776416,0.02822 4.433277,0.118306 7.650891,0.577471 2.385476,0.340416 4.744797,0.890415 6.312669,1.605604 0.783936,0.357594 1.353986,0.753968 1.654247,1.074955 0.300262,0.320987 0.356456,0.487763 0.362842,0.753053 0.0095,0.394946 -0.06955,0.603162 -0.347236,0.93644 -0.277688,0.333279 -0.806125,0.734662 -1.564511,1.096415 -1.516776,0.723505 -3.868122,1.254817 -6.26195,1.55293 -3.301242,0.411116 -6.03683,0.419571 -7.806952,0.390183 z"/>
 <path style="fill:#ffffff" d="m 13.993922,10.003203 a 1.9977809,1.9979379 0 0 0 -1.966369,1.997738 v 11.662577 a 1.9977809,1.9979379 0 0 0 0,0.661361 v 11.64892 a 1.9977809,1.9979379 0 1 0 3.995162,0 v -9.957476 c 1.89906,0.03196 4.75861,0.01969 8.300496,-0.421398 2.621219,-0.32643 5.274158,-0.856354 7.487028,-1.911898 1.106434,-0.527772 2.124722,-1.195856 2.916389,-2.146008 0.791669,-0.950151 1.304551,-2.239061 1.271898,-3.591636 -0.03157,-1.311424 -0.628692,-2.515807 -1.441613,-3.38484 C 33.74399,13.69151 32.740336,13.080267 31.644424,12.580363 29.452599,11.580556 26.826878,11.02434 24.237377,10.654809 19.058375,9.9157476 13.993922,10.003203 13.993922,10.003203 Z m 2.028793,4.028642 c 1.776416,0.02822 4.433277,0.118306 7.650891,0.577471 2.385476,0.340416 4.744797,0.890415 6.312669,1.605604 0.783936,0.357594 1.353986,0.753968 1.654247,1.074955 0.300262,0.320987 0.356456,0.487763 0.362842,0.753053 0.0095,0.394946 -0.06955,0.603162 -0.347236,0.93644 -0.277688,0.333279 -0.806125,0.734662 -1.564511,1.096415 -1.516776,0.723505 -3.868122,1.254817 -6.26195,1.55293 -3.301242,0.411116 -6.03683,0.419571 -7.806952,0.390183 z"/>
 <path style="opacity:0.2;fill:#ffffff" d="M 6.9511719 2.0019531 C 4.8010903 2.0357653 3.0136212 3.851897 3.0136719 6.0019531 L 3.0136719 6.5019531 C 3.0136212 4.351897 4.8010903 2.5357653 6.9511719 2.5019531 C 6.9588589 2.5017909 9.6540398 2.4451775 12.542969 2.8574219 C 13.973737 3.0615899 15.531598 3.3595759 17.068359 4.0605469 C 17.827179 4.4066721 18.702099 4.9088682 19.470703 5.7304688 C 20.299509 6.6164491 20.92482 7.8184703 20.990234 9.2871094 C 20.995652 9.1592218 21.001205 9.0312013 20.998047 8.9003906 C 20.961422 7.3790571 20.321136 6.1395672 19.470703 5.2304688 C 18.702099 4.4088682 17.827179 3.9066721 17.068359 3.5605469 C 15.531598 2.8595759 13.973737 2.5615899 12.542969 2.3574219 C 9.6540398 1.9451775 6.9588589 2.0017909 6.9511719 2.0019531 z M 3.0136719 11.832031 C 3.0090765 11.942385 3.0091302 12.051754 3.0136719 12.162109 L 3.0136719 11.832031 z" transform="scale(2)"/>
</svg>
